X:42
T:Twilight in Portroe
T:Dawn, The
R:reel
C:Sean Ryan (-1985)
H:Similar to "The Dawn", see #731
H:Both reels are also sometimes played in G, see #732, #733
D:De Dannan: Mist Covered Mountain.
Z:id:hn-reel-42
M:C|
K:A
A,2CE D2FD | E2GB ~A3c | d2fd edcA | ~B3c BAEC |
A,2CE D2FD | E2GB ~A3c | d2fd edcA | B2AB cAA2 :|
|: c2ec fcec | A2Ac BAFD | E2EF ABcA | defg aefe |
c2ec fcec | A2Ac BAFA | E2EF ABcA | dfed cAA2 :|
P:variations
A,2CE DEFD | E2GB ABcA | defd edcA | BcAB cAEC |
A,2CE DEFD | E2GB ABce | defa ecAc | BcAB cA~A2 |
A,2CE D2FD | E2GB ~A3c | defa ecAc | BdcB BAFA |
A,2CE D2FD | E2GB ~A3c | defd edcA | BdcB cA~A2 ||
|: cAeA fAec | ABcA BAFA | ~E3F ABcA | defg a2fe |
cAeA fAec | ABcA BAFD | ~E3F ABcA | dfed cA~A2 :|
<end>
<start>
